X:82
T:Hawks and Eagles
N:Transcribed by Bruce Thomson
N:Alternate the variations for the â€œAâ€ part to make a 4-part tune.
M:4/4
L:1/8
K:D
|:â€Dâ€ D3â€³_A part vaiation 1â€³DD2(D2|D2)D2(3B,DB,A,2|â€Aâ€[A3E3][AE][A2E2]([A2E2]|[AE])DEF EDB,A,|
â€œDâ€D3DD2(D2|D2)D2(3B,DB,A,2|â€Aâ€A3AA2AB|[1AFECâ€Dâ€D2(3A,B,C:|[2AFECD2(3ABc|]
|:â€Dâ€d2A2d2e2|f3g fede|f2a2gfe2|â€Gâ€[e6B6]cd|â€Aâ€edcB ABcd|
edcB ABcd|e2c2(3BcBA2|[1â€³Dâ€d3dd2(3ABc:|[2â€ Dâ€d3dd4|]
|:â€Dâ€d3â€³_A part vaiation 2â€³dd2(d2|d2)d2(3BdBA2|â€Aâ€e3ee2(e2|e)def edBA|
â€œDâ€d3dd2(d2|d2)d2(3BdBA2|-â€œAâ€a3aa2ab|afecâ€Dâ€d4:|

